X:128
T:Reels simple chords 445
M:3/4
L:1/8
K:D
de2< [f2D,2F,2A,2]e | d2 ef [gG,B,D]f | g2 B2 f2 | [e2A,2C2E2G2]>d2 c2 | A2 [dD,F,A,]B AG |
FE D2 [f3D,3F,3A,3] |e d2 ef | [g2G,2B,2D2] g2 B4 | [e2A,2C2E2G2]>d2 |
c2 A2 [A,CEG]B | cA d4 | [f2D,2F,2A,2]>e2 d2 | ef [gG,B,D]f g2 |
B2 f2 [e3A,3C3E3G3] |d c2 A2 | [dD,F,A,]B AG FE | D2 [f2D,2F,2A,2]>e2 |
d2 ef [g2G,2B,2D2] | g2 B4 | [e2A,2C2E2G2]>d2 c2 | A2 [A,CEG]B cA |
d4 [A3D,3F,3A,3] |G2< F2G | [A2D,2F,2A,2] d2 F3 |F [GA,CEG]C F2 |
E2 E2 A2 [GA,CEG]C | F2 E4 | [eA,CEG]f ed cA | Bc [d2D,2F,2A,2] A2 |
F2 A2 [d2D,2F,2A,2] | f2 ef Ge | [fD,F,A,]A c2 d4 | [A2D,2F,2A,2]>G2 |
F2>G2 [A2D,2F,2A,2] | d2 F2>F2 | [GA,CEG]C F2 E2 | E2 A2 [GA,CEG]C F2 |
E4 [eA,CEG]f | ed cA Bc | [d2D,2F,2A,2] A2 F2 | A2 [d2D,2F,2A,2] f2 |
ef Ge [fD,F,A,]A | c2 d2 |


